X: 2456
T: Ballroom Favourite, The
R: barndance
M: 4/4
K: Dmajor
|:FG|A2 F2 A4|B2 G2 B4|cBcd edcd|(3efe dB A2 FG|
A2 F2 A4|B2 G2 B4|cBcd edcd|1 (3efe dc d2:|2 (3efe dc d3||
|:f|a2 ba fe d2|cdef g4|gfge c2 A2|defg a4|
a2 ba fe d2|cdef g4|gfge cA (3Bcd|1 ~e2 dc d3:|2 ~e2 dc d2||

